X:1
T:Title
%%score { ( 1 2 ) | ( 3 4 ) }
L:1/8
M:4/4
K:F
V:1 treble nm="Grand Piano"
V:2 treble 
V:3 bass 
V:4 bass 
V:1
 z4 z2[Q:1/4=100] z G | z4 z2 [Fd]2 | c2 c2 A2 c2 | [Ec]2 [EG]2 [Ec]2 [GB]2 |[M:3/4] A6 | %5
[M:1/4] z G |[M:4/4] z4 z2 [Fd]2 | c2 c2 A2 F2 | G2 G2 A2 =B2 | [Ec]6 z2 | cc c>c d c3 | %11
 A2 A>A B A3 | [EG]2 [EG]>[EG] [EG][GB][FA]G | A2 =B2 [Ec]2 z2 | cc- c<c c/d/ c3 | %15
 A2 A>A [GB] [FA]3 | [EG]2 [EG]>[EG] [EG][GB][FA]G |[M:3/4] F6 |] %18
V:2
 z4 z2 F2 | [CFA]2 [CFA]2 [DFB]2 z E, | x8 | x8 |[M:3/4] x6 |[M:1/4] F2 | %6
[M:4/4] [CFA]2 [CFA]2 [DFB]2 z E, | x8 | x8 | x8 | x8 | x8 | x8 | x8 | x8 | x8 | x8 | %17
[M:3/4] z2 D2 C2 |] %18
V:3
 z4 z2 A,B, | F,2 F,2 B,,C, .[D,B,]2 | [F,A,F]2 [F,A,F]2 [F,CF]2 [F,A,F]2 | %3
 [C,G,]2 [C,C]2 [C,G,]2 [C,C]2 |[M:3/4] [F,CF]6 |[M:1/4] A,B, |[M:4/4] F,2 F,2 B,,C, .[D,B,]2 | %7
 [F,A,F]2 [F,A,F]2 [F,CF]2 [A,C]2 | [G,CE]2 [G,CE]2 [G,=B,F]2 [G,F]2 | [C,G,]6 z2 | %10
 [F,A,F][F,A,F] [F,A,F]>[F,A,F] [F,B,F] [F,A,F]3 | [F,CF]2 [F,CF]>[F,CF] [F,DF] [F,CF]3 | %12
 [C,C]2 [C,C]>[C,C] [C,C][C,C] z[K:treble] E | [F,CF]2 [G,F]2[K:bass] [C,G,]2 z2 | %14
 [F,A,F][F,A,F]- [F,A,F]<[F,A,F] [F,A,F]/[F,B,F]/ [F,A,F]3 | [F,CF]2 [F,CF]>[F,CF] [F,D] [F,C]3 | %16
 [C,C]2 [C,C]>[C,C] [C,C][C,C]C[B,E] |[M:3/4] [A,C]2 B,2 A,2 |] %18
V:4
 z4 z2 F,2 | x8 | x8 | x8 |[M:3/4] x6 |[M:1/4] F,2 |[M:4/4] x8 | x8 | x8 | x8 | x8 | x8 | %12
 z4 z2 [C,C]2[K:treble] | x4[K:bass] x4 | x8 | x8 | z4 z2 C,2 |[M:3/4] F,6 |] %18

